images/planb-logo-light.svg

<svg width="229" height="39" viewBox="0 0 229 39" fill="none" xmlns="http://www.w3.org/2000/svg"><path d="M43.4219 21.0413L45.4282 31.7662L46.5944 37.9984H49.6917C54.548 37.9984 58.7385 34.9638 60.1943 30.421L49.3668 22.9052L45.1079 19.9492C44.6724 20.4645 44.0876 20.8509 43.4219 21.0413Z" fill="#15B9D5"/><path d="M10.2472 28.0664L1.17188 31.9754C3.03117 35.6997 6.78281 37.999 11.0383 37.999H16.6641L14.0182 29.7786C13.7788 29.8311 13.5292 29.8596 13.2749 29.8596C11.9685 29.8596 10.8343 29.1346 10.2472 28.0664Z" fill="#15B9D5"/><path d="M11.0623 23.7537L6.38156 16.9219L6.16268 17.037V17.0142C2.34834 18.9066 0 22.6696 0 26.9559C0 28.504 0.303231 29.9905 0.897156 31.3813L9.99071 27.4643C9.88127 27.1303 9.82427 26.7746 9.82427 26.4042C9.82199 25.3394 10.3053 24.3887 11.0623 23.7537Z" fill="#15B9D5"/><path d="M15.8957 28.6562C15.5549 29.053 15.1274 29.371 14.6406 29.5808L17.3526 38.0006H29.1319L23.3568 33.9229L15.8957 28.6562Z" fill="#15B9D5"/><path d="M23.3555 33.9219L29.1317 37.9995L28.7316 37.7168L23.3555 33.9219Z" fill="#15B9D5"/><path d="M14.6406 29.5781L17.3526 37.998L14.6406 29.5781Z" fill="#15B9D5"/><path d="M13.669 22.9759L14.899 17.1712L15.803 12.9043C15.5317 12.7812 15.298 12.5931 15.1168 12.3594L6.96484 16.6195L11.6011 23.3863C12.0981 23.1104 12.6681 22.9531 13.2757 22.9531C13.408 22.9531 13.5413 22.9611 13.669 22.9759Z" fill="#15B9D5"/><path d="M18.2421 10.6451L35.2323 7.70279L35.7612 7.61159C33.0139 2.90464 27.9387 0 22.4099 0C21.3144 0 20.2143 0.113997 19.1359 0.340851L18.3778 3.91808L17.1797 9.57234C17.6722 9.75701 18.0632 10.1492 18.2421 10.6451Z" fill="#15B9D5"/><path d="M14.741 11.2607C14.741 10.2678 15.5424 9.46294 16.533 9.4561L18.4299 0.503906C11.5639 2.26858 6.8125 8.40048 6.8125 15.5914V15.9631L14.8162 11.7816C14.7672 11.6163 14.741 11.4431 14.741 11.2607Z" fill="#15B9D5"/><path d="M6.8125 15.9627L14.8151 11.7812L6.8125 15.9627Z" fill="#15B9D5"/><path d="M16.5312 9.45724L18.4293 0.503906L16.5312 9.45724Z" fill="#15B9D5"/><path d="M16.0801 24.3925L22.4457 20.6807C22.3351 20.4129 22.2759 20.121 22.2759 19.8144C22.2759 19.2752 22.4628 18.7793 22.774 18.3871L17.4777 12.8047C17.2053 12.9688 16.8884 13.0657 16.5464 13.0657C16.511 13.0657 16.4745 13.0623 16.4381 13.06L15.4474 17.7373L14.3086 23.11C15.0291 23.3357 15.6481 23.7929 16.0801 24.3925Z" fill="#15B9D5"/><path d="M15.4435 17.7383L14.3047 23.1121L15.4435 17.7383Z" fill="#15B9D5"/><path d="M24.5742 22.1154C23.8435 22.1154 23.1937 21.7734 22.7708 21.2422L16.4075 24.9551C16.6127 25.3962 16.7278 25.8876 16.7278 26.4051C16.7278 27.031 16.5602 27.6158 16.2695 28.1208L24.4431 33.8902L29.573 37.5107L24.9196 22.0869C24.8079 22.1051 24.6916 22.1154 24.5742 22.1154Z" fill="#15B9D5"/><path d="M29.5752 37.5112L24.4453 33.8906L29.5752 37.5112Z" fill="#15B9D5"/><path d="M16.2734 28.1211L16.4114 28.218L24.4459 33.8905L16.2734 28.1211Z" fill="#15B9D5"/><path d="M16.4102 28.2188L29.5757 37.5129L24.4458 33.8912L16.4102 28.2188Z" fill="#15B9D5"/><path d="M17.9648 12.3718L23.2463 17.9382C23.6225 17.6715 24.0785 17.513 24.5755 17.513C25.0851 17.513 25.5525 17.6795 25.9332 17.9588L31.4484 12.3193L35.33 8.34766L28.3933 9.54804L18.3467 11.2876C18.3433 11.6969 18.2008 12.0719 17.9648 12.3718Z" fill="#15B9D5"/><path d="M35.3301 8.34766L28.3945 9.54918L35.3301 8.34766Z" fill="#15B9D5"/><path d="M42.4679 14.2679C42.9023 14.2679 43.3184 14.3488 43.7014 14.4959L46.9366 7.96615C45.311 7.20009 43.5612 6.8125 41.7327 6.8125C39.8563 6.8125 38.2181 7.19211 36.7305 7.97299L39.4664 12.3277L40.9164 14.6373C41.3838 14.4013 41.9105 14.2679 42.4679 14.2679Z" fill="#15B9D5"/><path d="M45.8542 17.0333L51.04 16.485L53.6152 16.2125C52.8286 12.8348 50.5817 9.90165 47.522 8.25781L44.2891 14.7841C45.0836 15.2778 45.665 16.0849 45.8542 17.0333Z" fill="#15B9D5"/><path d="M47.522 8.25781L44.2891 14.7853L47.522 8.25781Z" fill="#15B9D5"/><path d="M26.7986 19.2269L31.1818 18.7139L39.0168 17.7973C39.0156 17.7734 39.0134 17.7483 39.0134 17.7221C39.0134 16.6084 39.5434 15.6166 40.3631 14.9862L36.38 8.64338L36.2136 8.37891L32.5452 12.1294L26.3984 18.4164C26.5831 18.6546 26.7199 18.9282 26.7986 19.2269Z" fill="#15B9D5"/><path d="M36.2142 8.37891L32.5469 12.1306L36.2142 8.37891Z" fill="#15B9D5"/><path d="M36.3813 8.64614L36.2148 8.38281L36.3813 8.64614Z" fill="#15B9D5"/><path d="M45.4766 19.4157L60.3828 29.7609C60.6142 28.8524 60.7305 27.9119 60.7305 26.96C60.7305 22.5027 58.014 18.4433 53.9614 16.8359L45.9189 17.6864C45.9189 17.7 45.9189 17.7114 45.9189 17.724C45.9189 18.3396 45.7581 18.9164 45.4766 19.4157Z" fill="#15B9D5"/><path d="M39.0932 18.4453L30.7372 19.4223L26.8761 19.8737C26.8521 20.7731 26.3152 21.5415 25.5469 21.8994L30.2584 37.5227L35.6105 28.5648L40.4269 20.5052C39.7566 20.0128 39.271 19.2855 39.0932 18.4453Z" fill="#15B9D5"/><path d="M30.2595 37.5217L25.5469 21.8984L30.2595 37.5217Z" fill="#15B9D5"/><path d="M30.7344 19.4223L39.0904 18.4453L30.7344 19.4223Z" fill="#15B9D5"/><path d="M42.4681 21.1778C41.938 21.1778 41.4353 21.0581 40.985 20.8438L36.1561 28.9273L30.7344 38.0015H45.9302L44.7777 31.8422L42.7793 21.1629C42.6779 21.1721 42.573 21.1778 42.4681 21.1778Z" fill="#15B9D5"/><path d="M44.7746 31.8383L42.7773 21.1602L44.7746 31.8383Z" fill="#15B9D5"/><path d="M30.7344 37.996L36.1561 28.9219L30.7344 37.996Z" fill="#15B9D5"/><path d="M94.0144 22.6378V29.7497H90.4727V8.38281H101.158C103.108 8.38281 104.78 9.08068 106.176 10.4764C107.572 11.8721 108.269 13.5557 108.269 15.5259C108.269 17.4762 107.573 19.1599 106.176 20.5754C104.78 21.9513 103.108 22.6378 101.158 22.6378H94.0144ZM94.0144 11.9544V19.0662H101.158C102.122 19.0662 102.953 18.7173 103.651 18.0195C104.349 17.3216 104.696 16.4904 104.696 15.5259C104.696 14.5401 104.349 13.699 103.651 13.0011C102.953 12.3033 102.122 11.9544 101.158 11.9544H94.0144Z" fill="#FFFFFF" fill-opacity="0.7"/><path d="M120.203 8.38281H123.746V26.1795H134.428V29.7497H120.203V8.38281Z" fill="#FFFFFF" fill-opacity="0.7"/><path d="M178.633 8.35156L192.855 21.1612V8.35156H196.428V29.7212V29.6886V29.751L182.173 16.9428V29.7198H178.633V8.35156Z" fill="#FFFFFF" fill-opacity="0.7"/><path d="M226.356 19.0662C227.607 20.2776 228.233 21.7655 228.233 23.53C228.233 24.3725 228.07 25.1725 227.739 25.9327C227.413 26.6916 226.966 27.354 226.402 27.9185C225.837 28.483 225.175 28.9284 224.416 29.2575C223.656 29.5866 222.856 29.7497 222.015 29.7497H210.438V8.38281H222.015C222.834 8.38281 223.632 8.54735 224.402 8.875C225.172 9.20407 225.839 9.65087 226.403 10.214C226.968 10.7799 227.414 11.4409 227.741 12.2012C228.07 12.96 228.234 13.76 228.234 14.6025C228.233 16.3457 227.607 17.8351 226.356 19.0662ZM222.015 11.9544H213.978V17.3117H222.015C222.363 17.3117 222.701 17.2393 223.032 17.0961C223.358 16.9528 223.647 16.7557 223.892 16.5103C224.139 16.2649 224.328 15.977 224.461 15.6479C224.595 15.3202 224.663 14.9713 224.663 14.6011C224.663 14.2522 224.595 13.9146 224.461 13.5855C224.327 13.2579 224.138 12.9699 223.892 12.7231C223.647 12.4763 223.358 12.2877 223.032 12.1529C222.701 12.021 222.363 11.9544 222.015 11.9544ZM222.015 26.1781C222.363 26.1781 222.701 26.1115 223.032 25.9781C223.358 25.8448 223.647 25.6547 223.892 25.4094C224.139 25.1625 224.328 24.876 224.461 24.547C224.595 24.2193 224.663 23.8789 224.663 23.53C224.663 23.1825 224.595 22.8435 224.461 22.5144C224.327 22.1867 224.141 21.8988 223.908 21.6534C223.67 21.4066 223.388 21.2123 223.06 21.0676C222.731 20.9243 222.38 20.852 222.013 20.852H213.976V26.1781H222.015Z" fill="#FFFFFF" fill-opacity="0.7"/><path d="M155.273 8.38281L144.59 29.7497H148.563L155.273 16.3585L160.195 26.1795H160.201L161.984 29.7497H165.957L155.273 8.38281Z" fill="#FFFFFF" fill-opacity="0.7"/></svg>

<?xml version="1.0" encoding="utf-8"?>
<!-- Generator: Adobe Illustrator 25.0.0, SVG Export Plug-In . SVG Version: 6.00 Build 0)  -->
<svg version="1.1" id="Layer_1" xmlns="http://www.w3.org/2000/svg" xmlns:xlink="http://www.w3.org/1999/xlink" x="0px" y="0px"
	 viewBox="0 0 229 39" style="enable-background:new 0 0 229 39;" xml:space="preserve">
<style type="text/css">
	.st0{fill:#15B9D5;}
	.st1{fill:#FFFFFF;}
</style>
<path class="st0" d="M43.4,21l2,10.7l1.2,6.2h3.1c4.9,0,9-3,10.5-7.6l-10.8-7.5l-4.3-3C44.7,20.5,44.1,20.9,43.4,21z"/>
<path class="st0" d="M10.2,28.1L1.2,32c1.9,3.7,5.6,6,9.9,6h5.6L14,29.8c-0.2,0.1-0.5,0.1-0.7,0.1C12,29.9,10.8,29.1,10.2,28.1z"/>
<path class="st0" d="M11.1,23.8l-4.7-6.8L6.2,17v0C2.3,18.9,0,22.7,0,27c0,1.5,0.3,3,0.9,4.4l9.1-3.9c-0.1-0.3-0.2-0.7-0.2-1.1
	C9.8,25.3,10.3,24.4,11.1,23.8z"/>
<path class="st0" d="M15.9,28.7c-0.3,0.4-0.8,0.7-1.3,0.9l2.7,8.4h11.8l-5.8-4.1L15.9,28.7z"/>
<path class="st0" d="M23.4,33.9l5.8,4.1l-0.4-0.3L23.4,33.9z"/>
<path class="st0" d="M14.6,29.6l2.7,8.4L14.6,29.6z"/>
<path class="st0" d="M13.7,23l1.2-5.8l0.9-4.3c-0.3-0.1-0.5-0.3-0.7-0.5L7,16.6l4.6,6.8c0.5-0.3,1.1-0.4,1.7-0.4
	C13.4,23,13.5,23,13.7,23z"/>
<path class="st0" d="M18.2,10.6l17-2.9l0.5-0.1C33,2.9,27.9,0,22.4,0c-1.1,0-2.2,0.1-3.3,0.3l-0.8,3.6l-1.2,5.7
	C17.7,9.8,18.1,10.1,18.2,10.6z"/>
<path class="st0" d="M14.7,11.3c0-1,0.8-1.8,1.8-1.8l1.9-9C11.6,2.3,6.8,8.4,6.8,15.6V16l8-4.2C14.8,11.6,14.7,11.4,14.7,11.3z"/>
<path class="st0" d="M6.8,16l8-4.2L6.8,16z"/>
<path class="st0" d="M16.5,9.5l1.9-9L16.5,9.5z"/>
<path class="st0" d="M16.1,24.4l6.4-3.7c-0.1-0.3-0.2-0.6-0.2-0.9c0-0.5,0.2-1,0.5-1.4l-5.3-5.6c-0.3,0.2-0.6,0.3-0.9,0.3
	c0,0-0.1,0-0.1,0l-1,4.7l-1.1,5.4C15,23.3,15.6,23.8,16.1,24.4z"/>
<path class="st0" d="M15.4,17.7l-1.1,5.4L15.4,17.7z"/>
<path class="st0" d="M24.6,22.1c-0.7,0-1.4-0.3-1.8-0.9L16.4,25c0.2,0.4,0.3,0.9,0.3,1.5c0,0.6-0.2,1.2-0.5,1.7l8.2,5.8l5.1,3.6
	l-4.7-15.4C24.8,22.1,24.7,22.1,24.6,22.1z"/>
<path class="st0" d="M29.6,37.5l-5.1-3.6L29.6,37.5z"/>
<path class="st0" d="M16.3,28.1l0.1,0.1l8,5.7L16.3,28.1z"/>
<path class="st0" d="M16.4,28.2l13.2,9.3l-5.1-3.6L16.4,28.2z"/>
<path class="st0" d="M18,12.4l5.3,5.6c0.4-0.3,0.8-0.4,1.3-0.4c0.5,0,1,0.2,1.4,0.4l5.5-5.6l3.9-4l-6.9,1.2l-10,1.7
	C18.3,11.7,18.2,12.1,18,12.4z"/>
<path class="st0" d="M35.3,8.3l-6.9,1.2L35.3,8.3z"/>
<path class="st0" d="M42.5,14.3c0.4,0,0.9,0.1,1.2,0.2L46.9,8c-1.6-0.8-3.4-1.2-5.2-1.2c-1.9,0-3.5,0.4-5,1.2l2.7,4.4l1.5,2.3
	C41.4,14.4,41.9,14.3,42.5,14.3z"/>
<path class="st0" d="M45.9,17l5.2-0.5l2.6-0.3c-0.8-3.4-3-6.3-6.1-8l-3.2,6.5C45.1,15.3,45.7,16.1,45.9,17z"/>
<path class="st0" d="M47.5,8.3l-3.2,6.5L47.5,8.3z"/>
<path class="st0" d="M26.8,19.2l4.4-0.5l7.8-0.9c0,0,0,0,0-0.1c0-1.1,0.5-2.1,1.3-2.7l-4-6.3l-0.2-0.3l-3.7,3.8l-6.1,6.3
	C26.6,18.7,26.7,18.9,26.8,19.2z"/>
<path class="st0" d="M36.2,8.4l-3.7,3.8L36.2,8.4z"/>
<path class="st0" d="M36.4,8.6l-0.2-0.3L36.4,8.6z"/>
<path class="st0" d="M45.5,19.4l14.9,10.3c0.2-0.9,0.3-1.8,0.3-2.8c0-4.5-2.7-8.5-6.8-10.1l-8,0.9c0,0,0,0,0,0
	C45.9,18.3,45.8,18.9,45.5,19.4z"/>
<path class="st0" d="M39.1,18.4l-8.4,1l-3.9,0.5c0,0.9-0.6,1.7-1.3,2l4.7,15.6l5.4-9l4.8-8.1C39.8,20,39.3,19.3,39.1,18.4z"/>
<path class="st0" d="M30.3,37.5l-4.7-15.6L30.3,37.5z"/>
<path class="st0" d="M30.7,19.4l8.4-1L30.7,19.4z"/>
<path class="st0" d="M42.5,21.2c-0.5,0-1-0.1-1.5-0.3l-4.8,8.1L30.7,38h15.2l-1.2-6.2l-2-10.7C42.7,21.2,42.6,21.2,42.5,21.2z"/>
<path class="st0" d="M44.8,31.8l-2-10.7L44.8,31.8z"/>
<path class="st0" d="M30.7,38l5.4-9.1L30.7,38z"/>
<g>
	<path class="st1" d="M94,22.6v7.1h-3.5V8.4h10.7c2,0,3.6,0.7,5,2.1c1.4,1.4,2.1,3.1,2.1,5c0,2-0.7,3.6-2.1,5
		c-1.4,1.4-3.1,2.1-5,2.1H94z M94,12v7.1h7.1c1,0,1.8-0.3,2.5-1c0.7-0.7,1-1.5,1-2.5c0-1-0.3-1.8-1-2.5c-0.7-0.7-1.5-1-2.5-1H94z"/>
	<path class="st1" d="M120.2,8.4h3.5v17.8h10.7v3.6h-14.2V8.4z"/>
	<path class="st1" d="M178.6,8.4l14.2,12.8V8.4h3.6v21.4v0v0.1l-14.3-12.8v12.8h-3.5V8.4z"/>
	<path class="st1" d="M226.4,19.1c1.3,1.2,1.9,2.7,1.9,4.5c0,0.8-0.2,1.6-0.5,2.4c-0.3,0.8-0.8,1.4-1.3,2c-0.6,0.6-1.2,1-2,1.3
		c-0.8,0.3-1.6,0.5-2.4,0.5h-11.6V8.4H222c0.8,0,1.6,0.2,2.4,0.5c0.8,0.3,1.4,0.8,2,1.3c0.6,0.6,1,1.2,1.3,2
		c0.3,0.8,0.5,1.6,0.5,2.4C228.2,16.3,227.6,17.8,226.4,19.1z M222,12h-8v5.4h8c0.3,0,0.7-0.1,1-0.2c0.3-0.1,0.6-0.3,0.9-0.6
		c0.2-0.2,0.4-0.5,0.6-0.9c0.1-0.3,0.2-0.7,0.2-1c0-0.3-0.1-0.7-0.2-1c-0.1-0.3-0.3-0.6-0.6-0.9c-0.2-0.2-0.5-0.4-0.9-0.6
		C222.7,12,222.4,12,222,12z M222,26.2c0.3,0,0.7-0.1,1-0.2c0.3-0.1,0.6-0.3,0.9-0.6c0.2-0.2,0.4-0.5,0.6-0.9c0.1-0.3,0.2-0.7,0.2-1
		c0-0.3-0.1-0.7-0.2-1c-0.1-0.3-0.3-0.6-0.6-0.9c-0.2-0.2-0.5-0.4-0.8-0.6c-0.3-0.1-0.7-0.2-1-0.2h-8v5.3H222z"/>
	<path class="st1" d="M155.3,8.4l-10.7,21.4h4l6.7-13.4l4.9,9.8h0l1.8,3.6h4L155.3,8.4z"/>
</g>
</svg>
